!!!COM: Berg, Alban (Maria Johannes)
!!!OTL: Drei Stücke (Three Pieces) for Orchestra
!!!OMV: III: Marsch (March)
!!!example: 439
!!!work: Ber-9
**kern	**dynam	**kern	**dynam	**kern	**dynam	**kern	**dynam	**kern	**dynam	**kern	**dynam	**kern	**kern	**dynam	**kern	**dynam	**kern	**dynam	**kern	**dynam	**kern	**dynam	**kern	**dynam	**kern	**dynam	**kern	**dynam	**kern	**dynam	**kern	**dynam	**kern	**dynam	**kern	**dynam	**kern	**dynam	**kern	**dynam	**kern	**dynam	**kern	**dynam	**kern	**dynam	**kern	**dynam	**kern	**dynam	**kern	**dynam
*part27	*part27	*part26	*part26	*part25	*part25	*part24	*part24	*part23	*part23	*part22	*part22	*part21	*part21	*part21	*part20	*part20	*part19	*part19	*part18	*part18	*part17	*part17	*part16	*part16	*part15	*part15	*part14	*part14	*part13	*part13	*part11	*part11	*part10	*part10	*part9	*part9	*part8	*part8	*part7	*part7	*part6	*part6	*part5	*part5	*part4	*part4	*part3	*part3	*part2	*part2	*part1	*part1
*staff28	*	*staff27	*	*staff26	*	*staff25	*	*staff24	*	*staff23	*	*staff22	*staff21	*	*staff20	*	*staff19	*	*staff18	*	*staff17	*	*staff16	*	*staff15	*	*staff14	*	*staff13	*	*staff11	*	*staff10	*	*staff9	*	*staff8	*	*staff7	*	*staff6	*	*staff5	*	*staff4	*	*staff3	*	*staff2	*	*staff1	*
*I"Contrabass	*	*I"Violoncello	*	*I"Viola	*	*I"Violin II	*	*I"Violin I	*	*I"Violin I	*	*I"Harp	*	*	*I"Xylophone	*	*I"Timpani	*	*I"Triangle	*	*I"Tam-tam	*	*I"Snare Drum	*	*I"Cymbals	*	*I"Bass Drum	*	*I"Tuba	*	*I"Trombone	*	*I"Trombone	*	*I"Trumpet in F	*	*I"Horn in F	*	*I"Contrabassoon	*	*I"Bassoon	*	*I"Bass Clarinet in Bb	*	*I"Clarinet in A	*	*I"English Horn	*	*I"Oboe	*	*I"Flute	*
*I'Cb.	*	*I'Vc.	*	*I'Vla.	*	*I'Vln. II	*	*I'Vln. I	*	*I'Vln. I	*	*I'Hp.	*	*	*I'Xyl.	*	*I'Timp.	*	*I'Tri.	*	*I'T.-t.	*	*I'S. D.	*	*I'Cym.	*	*I'B. D.	*	*I'Tba.	*	*I'Tbn.	*	*I'Tbn.	*	*I'F Tpt.	*	*I'Hn.	*	*I'Cbsn.	*	*I'Bsn.	*	*I'B. Cl.	*	*I'Cl.	*	*I'Eng. Hn.	*	*I'Ob.	*	*I'Fl.	*
*clefF4	*	*clefF4	*	*clefC3	*	*clefG2	*	*clefG2	*	*clefG2	*	*clefF4	*clefG2	*	*clefG2	*	*clefF4	*	*clefpercussion0	*	*clefpercussion0	*	*clefpercussion0	*	*clefpercussion0	*	*clefpercussion0	*	*clefF4	*	*clefF4	*	*clefF4	*	*clefG2	*	*clefG2	*	*clefF4	*	*clefF4	*	*clefG2	*	*clefG2	*	*clefG2	*	*clefG2	*	*clefG2	*
*k[]	*	*k[]	*	*k[]	*	*k[]	*	*k[]	*	*k[]	*	*k[]	*k[]	*	*k[]	*	*	*	*	*	*	*	*	*	*	*	*	*	*k[]	*	*k[]	*	*k[]	*	*k[]	*	*	*	*k[]	*	*k[]	*	*k[]	*	*k[]	*	*k[]	*	*k[]	*	*k[]	*
*	*	*	*	*	*	*	*	*	*	*	*	*	*	*	*	*	*	*	*	*	*	*	*	*	*	*	*	*	*	*	*	*	*	*	*	*	*	*	*	*	*	*	*	*	*	*	*	*	*	*	*	*
*M4/4	*	*M4/4	*	*M4/4	*	*M4/4	*	*M4/4	*	*M4/4	*	*M4/4	*M4/4	*	*M4/4	*	*M4/4	*	*M4/4	*	*M4/4	*	*M4/4	*	*M4/4	*	*M4/4	*	*M4/4	*	*M4/4	*	*M4/4	*	*M4/4	*	*M4/4	*	*M4/4	*	*M4/4	*	*M4/4	*	*M4/4	*	*M4/4	*	*M4/4	*	*M4/4	*
*MM121	*	*MM121	*	*MM121	*	*MM121	*	*MM121	*	*MM121	*	*MM121	*MM121	*	*MM121	*	*MM121	*	*MM121	*	*MM121	*	*MM121	*	*MM121	*	*MM121	*	*MM121	*	*MM121	*	*MM121	*	*MM121	*	*MM121	*	*MM121	*	*MM121	*	*MM121	*	*MM121	*	*MM121	*	*MM121	*	*MM121	*
=84	=84	=84	=84	=84	=84	=84	=84	=84	=84	=84	=84	=84	=84	=84	=84	=84	=84	=84	=84	=84	=84	=84	=84	=84	=84	=84	=84	=84	=84	=84	=84	=84	=84	=84	=84	=84	=84	=84	=84	=84	=84	=84	=84	=84	=84	=84	=84	=84	=84	=84	=84	=84
.	.	.	.	.	.	.	.	.	.	.	.	.	.	.	.	.	.	.	.	.	.	.	.	.	.	.	.	.	.	.	.	.	.	.	.	.	.	.	.	.	.	.	.	.	.	.	(8qe-X/	mf	.	.	.	.
1r	.	1r	.	1r	.	1r	.	1r	.	1r	.	4BBn	4Fn 4Gn 4d-X 4fn 4an	.	1r	.	8.r	.	1r	.	1r	.	4r	.	4x	mf	2r	.	1r	.	1r	.	1r	.	16fn	.	([2A-X	p	8BBn	.	8Fn	.	16an	.	8G	.	(8Fn^L)	.	(8d-X^L	mf	1r	.
.	.	.	.	.	.	.	.	.	.	.	.	.	.	.	.	.	.	.	.	.	.	.	.	.	.	.	.	.	.	.	.	.	.	.	16r	.	.	.	.	.	.	.	16r	.	.	.	.	.	.	.	.	.
.	.	.	.	.	.	.	.	.	.	.	.	.	.	.	.	.	.	.	.	.	.	.	.	.	.	.	.	.	.	.	.	.	.	.	8r	.	.	.	8r	.	8r	.	8r	.	8r	.	8Gn	.	8f#X	.	.	.
.	.	.	.	.	.	.	.	.	.	.	.	.	.	.	.	.	16AAn	< p	.	.	.	.	.	.	.	.	.	.	.	.	.	.	.	.	.	.	.	.	.	.	.	.	.	.	.	.	.	.	.	.	.	.
.	.	.	.	.	.	.	.	.	.	.	.	4r	4r	.	.	.	24GGnLL	.	.	.	.	.	8r	.	4r	.	.	.	.	.	.	.	.	.	4r	.	.	.	4r	.	4r	.	4r	.	8r	.	8An	<	8gn	<	.	.
.	.	.	.	.	.	.	.	.	.	.	.	.	.	.	.	.	24AA	[	.	.	.	.	.	.	.	.	.	.	.	.	.	.	.	.	.	.	.	.	.	.	.	.	.	.	.	.	.	.	.	.	.	.
.	.	.	.	.	.	.	.	.	.	.	.	.	.	.	.	.	24GG	.	.	.	.	.	.	.	.	.	.	.	.	.	.	.	.	.	.	.	.	.	.	.	.	.	.	.	.	.	.	.	.	.	.	.
.	.	.	.	.	.	.	.	.	.	.	.	.	.	.	.	.	.	.	.	.	.	.	8qx/	pp	.	.	.	.	.	.	.	.	.	.	.	.	.	.	.	.	.	.	.	.	(8qddn/	p	.	.	.	.	.	.
.	.	.	.	.	.	.	.	.	.	.	.	.	.	.	.	.	24AA	>	.	.	.	.	8x	.	.	.	.	.	.	.	.	.	.	.	.	.	.	.	.	.	.	.	.	.	16ff#X^)	.	8c#XJ	.	8bnJ	.	.	.
.	.	.	.	.	.	.	.	.	.	.	.	.	.	.	.	.	24GG	.	.	.	.	.	.	.	.	.	.	.	.	.	.	.	.	.	.	.	.	.	.	.	.	.	.	.	.	.	.	.	.	.	.	.
.	.	.	.	.	.	.	.	.	.	.	.	.	.	.	.	.	.	.	.	.	.	.	.	.	.	.	.	.	.	.	.	.	.	.	.	.	.	.	.	.	.	.	.	.	16r	.	.	.	.	.	.	.
.	.	.	.	.	.	.	.	.	.	.	.	.	.	.	.	.	24AAJJ	.	.	.	.	.	.	.	.	.	.	.	.	.	.	.	.	.	.	.	.	.	.	.	.	.	.	.	.	.	.	.	.	.	.	.
.	.	.	.	.	.	.	.	.	.	.	.	2r	2r	.	.	.	16GG	]	.	.	.	.	2r	.	2r	.	4r	.	.	.	.	.	.	.	2r	.	4.A-]	.	2r	.	4r	.	2r	.	2r	.	8cnL	[ >	8b-XL	[ >	.	.
.	.	.	.	.	.	.	.	.	.	.	.	.	.	.	.	.	16r	.	.	.	.	.	.	.	.	.	.	.	.	.	.	.	.	.	.	.	.	.	.	.	.	.	.	.	.	.	.	.	.	.	.	.
.	.	.	.	.	.	.	.	.	.	.	.	.	.	.	.	.	16r	.	.	.	.	.	.	.	.	.	.	.	.	.	.	.	.	.	.	.	.	.	.	.	.	.	.	.	.	.	8F#X	.	8en	.	.	.
.	.	.	.	.	.	.	.	.	.	.	.	.	.	.	.	.	16AAn	<	.	.	.	.	.	.	.	.	.	.	.	.	.	.	.	.	.	.	.	.	.	.	.	.	.	.	.	.	.	.	.	.	.	.
.	.	.	.	.	.	.	.	.	.	.	.	.	.	.	.	.	.	.	.	.	.	.	.	.	.	.	8qx/	pp	.	.	.	.	.	.	.	.	.	.	.	.	(8qCCn/	ppp	.	.	.	.	.	.	.	.	.	.
.	.	.	.	.	.	.	.	.	.	.	.	.	.	.	.	.	24GGnLL	.	.	.	.	.	.	.	.	.	8x	.	.	.	.	.	.	.	.	.	.	.	.	.	32EEn^)	.	.	.	.	.	8Fn	]	8e-X	]	.	.
.	.	.	.	.	.	.	.	.	.	.	.	.	.	.	.	.	.	.	.	.	.	.	.	.	.	.	.	.	.	.	.	.	.	.	.	.	.	.	.	.	32r	.	.	.	.	.	.	.	.	.	.	.
.	.	.	.	.	.	.	.	.	.	.	.	.	.	.	.	.	24AA	[	.	.	.	.	.	.	.	.	.	.	.	.	.	.	.	.	.	.	.	.	.	.	.	.	.	.	.	.	.	.	.	.	.	.
.	.	.	.	.	.	.	.	.	.	.	.	.	.	.	.	.	.	.	.	.	.	.	.	.	.	.	.	.	.	.	.	.	.	.	.	.	.	.	.	.	16r	.	.	.	.	.	.	.	.	.	.	.
.	.	.	.	.	.	.	.	.	.	.	.	.	.	.	.	.	24GG	.	.	.	.	.	.	.	.	.	.	.	.	.	.	.	.	.	.	.	.	.	.	.	.	.	.	.	.	.	.	.	.	.	.	.
.	.	.	.	.	.	.	.	.	.	.	.	.	.	.	.	.	24AA	>	.	.	.	.	.	.	.	.	8r	.	.	.	.	.	.	.	.	.	[8c-X	.	.	.	8r	.	.	.	.	.	8F-X^J	.	8dn^J	.	.	.
.	.	.	.	.	.	.	.	.	.	.	.	.	.	.	.	.	24GG	.	.	.	.	.	.	.	.	.	.	.	.	.	.	.	.	.	.	.	.	.	.	.	.	.	.	.	.	.	.	.	.	.	.	.
.	.	.	.	.	.	.	.	.	.	.	.	.	.	.	.	.	24AAJJ	.	.	.	.	.	.	.	.	.	.	.	.	.	.	.	.	.	.	.	.	.	.	.	.	.	.	.	.	.	.	.	.	.	.	.
=85	=85	=85	=85	=85	=85	=85	=85	=85	=85	=85	=85	=85	=85	=85	=85	=85	=85	=85	=85	=85	=85	=85	=85	=85	=85	=85	=85	=85	=85	=85	=85	=85	=85	=85	=85	=85	=85	=85	=85	=85	=85	=85	=85	=85	=85	=85	=85	=85	=85	=85	=85	=85
2r	.	1r	.	8r	ppp	1r	.	4r	.	1r	.	1r	1r	.	1r	.	16GG	]	4r	.	2r	.	4r	.	8r	.	2r	.	2r	.	1r	.	1r	.	1r	.	2.c-]	.	1r	.	2r	.	1r	.	4r	.	8A-XL	<	8f#XL	<	4r	.
.	.	.	.	.	.	.	.	.	.	.	.	.	.	.	.	.	16r	.	.	.	.	.	.	.	.	.	.	.	.	.	.	.	.	.	.	.	.	.	.	.	.	.	.	.	.	.	.	.	.	.	.	.
.	.	.	.	(8qEn/	.	.	.	.	.	.	.	.	.	.	.	.	.	.	.	.	.	.	.	.	.	.	.	.	.	.	.	.	.	.	.	.	.	.	.	.	.	.	.	.	.	.	.	.	.	.	.	.
.	.	.	.	16G#X^)	.	.	.	.	.	.	.	.	.	.	.	.	16r	.	.	.	.	.	.	.	8x	ppp	.	.	.	.	.	.	.	.	.	.	.	.	.	.	.	.	.	.	.	.	8B-X	.	8g#X	.	.	.
.	.	.	.	16r	.	.	.	.	.	.	.	.	.	.	.	.	16AAn	<	.	.	.	.	.	.	.	.	.	.	.	.	.	.	.	.	.	.	.	.	.	.	.	.	.	.	.	.	.	.	.	.	.	.
!	!	!	!	!	!	!	!	!LO:TX:t=pizz.	!	!	!	!	!	!	!	!	!	!	!	!	!	!	!LO:TX:t=poco cresc.	!	!	!	!	!	!	!	!	!	!	!	!	!	!	!	!	!	!	!	!	!	!LO:TX:t=poco cresc.	!	!	!	!	!	!	!
.	.	.	.	4r	.	.	.	8r	ppp	.	.	.	.	.	.	.	24GGnLL	.	8r	.	.	.	16xLL	.	4r	.	.	.	.	.	.	.	.	.	.	.	.	.	.	.	.	.	.	.	(16ddnKL	.	8dn	.	8b#X	.	8r	.
.	.	.	.	.	.	.	.	.	.	.	.	.	.	.	.	.	24AA	[	.	.	.	.	.	.	.	.	.	.	.	.	.	.	.	.	.	.	.	.	.	.	.	.	.	.	.	.	.	.	.	.	.	.
.	.	.	.	.	.	.	.	.	.	.	.	.	.	.	.	.	.	.	.	.	.	.	16xJJ	.	.	.	.	.	.	.	.	.	.	.	.	.	.	.	.	.	.	.	.	.	8ff#XJ)	.	.	.	.	.	.	.
.	.	.	.	.	.	.	.	.	.	.	.	.	.	.	.	.	24GG	.	.	.	.	.	.	.	.	.	.	.	.	.	.	.	.	.	.	.	.	.	.	.	.	.	.	.	.	.	.	.	.	.	.	.
.	.	.	.	.	.	.	.	(8qbb/	.	.	.	.	.	.	.	.	.	.	8qx/	pp	.	.	.	.	.	.	.	.	.	.	.	.	.	.	.	.	.	.	.	.	.	.	.	.	.	.	.	.	.	.	(8qbb/	pp
.	.	.	.	.	.	.	.	16ddd#X^)	.	.	.	.	.	.	.	.	24AA	>	8x	.	.	.	8r	.	.	.	.	.	.	.	.	.	.	.	.	.	.	.	.	.	.	.	.	.	.	.	8d-XJ	[ >	8bnJ	[ >	16ddd#X^)	.
.	.	.	.	.	.	.	.	.	.	.	.	.	.	.	.	.	24GG	.	.	.	.	.	.	.	.	.	.	.	.	.	.	.	.	.	.	.	.	.	.	.	.	.	.	.	.	.	.	.	.	.	.	.
.	.	.	.	.	.	.	.	16r	.	.	.	.	.	.	.	.	.	.	.	.	.	.	.	.	.	.	.	.	.	.	.	.	.	.	.	.	.	.	.	.	.	.	.	.	16r	.	.	.	.	.	16r	.
.	.	.	.	.	.	.	.	.	.	.	.	.	.	.	.	.	24AAJJ	.	.	.	.	.	.	.	.	.	.	.	.	.	.	.	.	.	.	.	.	.	.	.	.	.	.	.	.	.	.	.	.	.	.	.
!	!	!	!	!	!	!	!	!	!	!	!	!	!	!	!	!	!	!	!	!	!	!	!	!	!	!	!LO:TX:t=poco cresc.	!	!	!	!	!	!	!	!	!	!	!	!	!	!	!	!	!	!	!	!	!	!	!	!	!
.	.	.	.	.	.	.	.	.	.	.	.	.	.	.	.	.	.	.	.	.	.	.	.	.	.	.	32qx/	.	.	.	.	.	.	.	.	.	.	.	.	.	(8qCCn/	pp	.	.	.	.	.	.	.	.	.	.
4r	.	.	.	4r	.	.	.	2r	.	.	.	.	.	.	.	.	16GG	]	2r	.	4r	.	4r	.	4r	.	8x	.	4r	.	.	.	.	.	.	.	.	.	.	.	32EEn^)	.	.	.	4r	.	8GnL	.	8fnL	.	2r	.
.	.	.	.	.	.	.	.	.	.	.	.	.	.	.	.	.	.	.	.	.	.	.	.	.	.	.	.	.	.	.	.	.	.	.	.	.	.	.	.	.	32r	.	.	.	.	.	.	.	.	.	.	.
.	.	.	.	.	.	.	.	.	.	.	.	.	.	.	.	.	16r	.	.	.	.	.	.	.	.	.	.	.	.	.	.	.	.	.	.	.	.	.	.	.	16r	.	.	.	.	.	.	.	.	.	.	.
.	.	.	.	.	.	.	.	.	.	.	.	.	.	.	.	.	16r	.	.	.	.	.	.	.	.	.	8r	.	.	.	.	.	.	.	.	.	.	.	.	.	8r	.	.	.	.	.	8G-X	]	8f-X	]	.	.
.	.	.	.	.	.	.	.	.	.	.	.	.	.	.	.	.	16AAn	<	.	.	.	.	.	.	.	.	.	.	.	.	.	.	.	.	.	.	.	.	.	.	.	.	.	.	.	.	.	.	.	.	.	.
.	.	.	.	(8qEn/	pp	.	.	.	.	.	.	.	.	.	.	.	.	.	.	.	.	.	.	.	.	.	.	.	.	.	.	.	.	.	.	.	.	.	.	.	.	.	.	.	.	.	.	.	.	.	.	.
8r	.	.	.	32G#^)	.	.	.	.	.	.	.	.	.	.	.	.	24GGnLL	.	.	.	8r	.	8r	.	4x	pp	4r	.	8r	.	.	.	.	.	.	.	[4dn	.	.	.	4r	.	.	.	8r	.	8Fn^	.	8e-X^	.	.	.
.	.	.	.	32r	.	.	.	.	.	.	.	.	.	.	.	.	.	.	.	.	.	.	.	.	.	.	.	.	.	.	.	.	.	.	.	.	.	.	.	.	.	.	.	.	.	.	.	.	.	.	.	.
.	.	.	.	.	.	.	.	.	.	.	.	.	.	.	.	.	24AA	[	.	.	.	.	.	.	.	.	.	.	.	.	.	.	.	.	.	.	.	.	.	.	.	.	.	.	.	.	.	.	.	.	.	.
.	.	.	.	16r	.	.	.	.	.	.	.	.	.	.	.	.	.	.	.	.	.	.	.	.	.	.	.	.	.	.	.	.	.	.	.	.	.	.	.	.	.	.	.	.	.	.	.	.	.	.	.	.
.	.	.	.	.	.	.	.	.	.	.	.	.	.	.	.	.	24GG	.	.	.	.	.	.	.	.	.	.	.	.	.	.	.	.	.	.	.	.	.	.	.	.	.	.	.	.	.	.	.	.	.	.	.
16AAA-X	pp	.	.	8r	.	.	.	.	.	.	.	.	.	.	.	.	24AA	>	.	.	8x	pp	16xLL	p	.	.	.	.	16AAA-X	pp	.	.	.	.	.	.	.	.	.	.	.	.	.	.	(8ddn	.	8AnJ	<	8gnJ	<	.	.
.	.	.	.	.	.	.	.	.	.	.	.	.	.	.	.	.	24GG	.	.	.	.	.	.	.	.	.	.	.	.	.	.	.	.	.	.	.	.	.	.	.	.	.	.	.	.	.	.	.	.	.	.	.
16r	.	.	.	.	.	.	.	.	.	.	.	.	.	.	.	.	.	.	.	.	.	.	16xJJ	.	.	.	.	.	16r	.	.	.	.	.	.	.	.	.	.	.	.	.	.	.	.	.	.	.	.	.	.	.
.	.	.	.	.	.	.	.	.	.	.	.	.	.	.	.	.	24AAJJ	.	.	.	.	.	.	.	.	.	.	.	.	.	.	.	.	.	.	.	.	.	.	.	.	.	.	.	.	.	.	.	.	.	.	.
=86	=86	=86	=86	=86	=86	=86	=86	=86	=86	=86	=86	=86	=86	=86	=86	=86	=86	=86	=86	=86	=86	=86	=86	=86	=86	=86	=86	=86	=86	=86	=86	=86	=86	=86	=86	=86	=86	=86	=86	=86	=86	=86	=86	=86	=86	=86	=86	=86	=86	=86	=86	=86
1r	.	1r	.	4r	.	1r	.	2r	.	1r	.	1r	1r	.	1r	.	16GG	]	2r	.	1r	.	8x	.	4r	.	4r	.	1r	.	1r	.	1r	.	1r	.	2d_	.	1r	.	4r	.	1r	.	8.ff#X)	.	8BnL	.	8anL	.	2r	.
.	.	.	.	.	.	.	.	.	.	.	.	.	.	.	.	.	16r	.	.	.	.	.	.	.	.	.	.	.	.	.	.	.	.	.	.	.	.	.	.	.	.	.	.	.	.	.	.	.	.	.	.	.
.	.	.	.	.	.	.	.	.	.	.	.	.	.	.	.	.	16r	.	.	.	.	.	8r	.	.	.	.	.	.	.	.	.	.	.	.	.	.	.	.	.	.	.	.	.	.	.	8d#X	[	8cc#X	[	.	.
.	.	.	.	.	.	.	.	.	.	.	.	.	.	.	.	.	16AAn	<	.	.	.	.	.	.	.	.	.	.	.	.	.	.	.	.	.	.	.	.	.	.	.	.	.	.	16r	.	.	.	.	.	.	.
.	.	.	.	.	.	.	.	.	.	.	.	.	.	.	.	.	.	.	.	.	.	.	.	.	.	.	8qx/	.	.	.	.	.	.	.	.	.	.	.	.	.	(8qCCn/	pp	.	.	.	.	.	.	.	.	.	.
.	.	.	.	8r	.	.	.	.	.	.	.	.	.	.	.	.	24GGnLL	.	.	.	.	.	8r	.	8r	.	8x	.	.	.	.	.	.	.	.	.	.	.	.	.	32EEn^)	.	.	.	8r	.	8dn	>	8ccn	>	.	.
.	.	.	.	.	.	.	.	.	.	.	.	.	.	.	.	.	.	.	.	.	.	.	.	.	.	.	.	.	.	.	.	.	.	.	.	.	.	.	.	.	32r	.	.	.	.	.	.	.	.	.	.	.
.	.	.	.	.	.	.	.	.	.	.	.	.	.	.	.	.	24AA	[	.	.	.	.	.	.	.	.	.	.	.	.	.	.	.	.	.	.	.	.	.	.	.	.	.	.	.	.	.	.	.	.	.	.
.	.	.	.	.	.	.	.	.	.	.	.	.	.	.	.	.	.	.	.	.	.	.	.	.	.	.	.	.	.	.	.	.	.	.	.	.	.	.	.	.	16r	.	.	.	.	.	.	.	.	.	.	.
.	.	.	.	.	.	.	.	.	.	.	.	.	.	.	.	.	24GG	.	.	.	.	.	.	.	.	.	.	.	.	.	.	.	.	.	.	.	.	.	.	.	.	.	.	.	.	.	.	.	.	.	.	.
.	.	.	.	(8qEn/	p	.	.	.	.	.	.	.	.	.	.	.	.	.	.	.	.	.	.	.	.	.	.	.	.	.	.	.	.	.	.	.	.	.	.	.	.	.	.	.	.	.	.	.	.	.	.	.
.	.	.	.	16G#X)	.	.	.	.	.	.	.	.	.	.	.	.	24AA	>	.	.	.	.	16xLL	mf	8x	p	8r	.	.	.	.	.	.	.	.	.	.	.	.	.	8r	.	.	.	([8ddn	.	8A-XJ	.	8f#XJ	.	.	.
.	.	.	.	.	.	.	.	.	.	.	.	.	.	.	.	.	24GG	.	.	.	.	.	.	.	.	.	.	.	.	.	.	.	.	.	.	.	.	.	.	.	.	.	.	.	.	.	.	.	.	.	.	.
.	.	.	.	16r	.	.	.	.	.	.	.	.	.	.	.	.	.	.	.	.	.	.	16xJJ	.	.	.	.	.	.	.	.	.	.	.	.	.	.	.	.	.	.	.	.	.	.	.	.	.	.	.	.	.
.	.	.	.	.	.	.	.	.	.	.	.	.	.	.	.	.	24AAJJ	.	.	.	.	.	.	.	.	.	.	.	.	.	.	.	.	.	.	.	.	.	.	.	.	.	.	.	.	.	.	.	.	.	.	.
.	.	.	.	4r	.	.	.	8r	.	.	.	.	.	.	.	.	16GG	]	8.r	.	.	.	16xLL	.	4r	.	4r	.	.	.	.	.	.	.	.	.	8d]	.	.	.	4r	.	.	.	8dd]	.	8GnL	.	8fnL	.	8.r	.
.	.	.	.	.	.	.	.	.	.	.	.	.	.	.	.	.	16r	.	.	.	.	.	16xJ	.	.	.	.	.	.	.	.	.	.	.	.	.	.	.	.	.	.	.	.	.	.	.	.	.	.	.	.	.
!	!	!	!	!	!	!	!	!LO:TX:t=pizz.	!	!	!	!	!	!	!	!	!	!	!	!	!	!	!	!	!	!	!	!	!	!	!	!	!	!	!	!	!	!	!	!	!	!	!	!	!	!	!	!	!	!	!	!
.	.	.	.	.	.	.	.	16bbnLL	pp	.	.	.	.	.	.	.	16r	.	.	.	.	.	8xJ	.	.	.	.	.	.	.	.	.	.	.	.	.	[4.fn	.	.	.	.	.	.	.	4ff#X^)	.	8G-X^	] <	8en^	] <	.	.
.	.	.	.	.	.	.	.	16ddd#XJJ	.	.	.	.	.	.	.	.	16AAn	<	16x	p	.	.	.	.	.	.	.	.	.	.	.	.	.	.	.	.	.	.	.	.	.	.	.	.	.	.	.	.	.	.	(16bbn	.
.	.	.	.	8.r	.	.	.	4r	.	.	.	.	.	.	.	.	24GGnLL	.	8x	.	.	.	4r	.	8.r	.	16r	.	.	.	.	.	.	.	.	.	.	.	.	.	16r	.	.	.	.	.	8B-X	.	8g#X	.	16ddd#X^)	.
.	.	.	.	.	.	.	.	.	.	.	.	.	.	.	.	.	24AA	[	.	.	.	.	.	.	.	.	.	.	.	.	.	.	.	.	.	.	.	.	.	.	.	.	.	.	.	.	.	.	.	.	.	.
.	.	.	.	.	.	.	.	.	.	.	.	.	.	.	.	.	.	.	.	.	.	.	.	.	.	.	16xLL	.	.	.	.	.	.	.	.	.	.	.	.	.	(16CCnLL	p	.	.	.	.	.	.	.	.	16r	.
.	.	.	.	.	.	.	.	.	.	.	.	.	.	.	.	.	24GG	.	.	.	.	.	.	.	.	.	.	.	.	.	.	.	.	.	.	.	.	.	.	.	.	.	.	.	.	.	.	.	.	.	.	.
.	.	.	.	.	.	.	.	.	.	.	.	.	.	.	.	.	24AA	>	8r	.	.	.	.	.	.	.	16xJJ	.	.	.	.	.	.	.	.	.	.	.	.	.	16EEn^JJ)	.	.	.	8r	.	8cnJ	[[	8a#XJ	[[	8r	.
.	.	.	.	.	.	.	.	.	.	.	.	.	.	.	.	.	24GG	.	.	.	.	.	.	.	.	.	.	.	.	.	.	.	.	.	.	.	.	.	.	.	.	.	.	.	.	.	.	.	.	.	.	.
.	.	.	.	(16En	mp	.	.	.	.	.	.	.	.	.	.	.	.	.	.	.	.	.	.	.	16x	mp	16r	.	.	.	.	.	.	.	.	.	.	.	.	.	16r	.	.	.	.	.	.	.	.	.	.	.
.	.	.	.	.	.	.	.	.	.	.	.	.	.	.	.	.	24AAJJ	.	.	.	.	.	.	.	.	.	.	.	.	.	.	.	.	.	.	.	.	.	.	.	.	.	.	.	.	.	.	.	.	.	.	.
=87	=87	=87	=87	=87	=87	=87	=87	=87	=87	=87	=87	=87	=87	=87	=87	=87	=87	=87	=87	=87	=87	=87	=87	=87	=87	=87	=87	=87	=87	=87	=87	=87	=87	=87	=87	=87	=87	=87	=87	=87	=87	=87	=87	=87	=87	=87	=87	=87	=87	=87	=87	=87
4r	.	1r	.	16G#X)	.	1r	.	2r	.	1r	.	4r	1r	.	1r	.	16GG	]	2r	.	4r	.	8r	.	8r	.	4r	.	4r	.	1r	.	1r	.	1r	.	2f]	.	4r	.	4r	.	2r	.	8r	.	8enL	.	8ddnL	.	2r	.
.	.	.	.	16r	.	.	.	.	.	.	.	.	.	.	.	.	16r	.	.	.	.	.	.	.	.	.	.	.	.	.	.	.	.	.	.	.	.	.	.	.	.	.	.	.	.	.	.	.	.	.	.	.
.	.	.	.	8r	.	.	.	.	.	.	.	.	.	.	.	.	16r	.	.	.	.	.	4.x	pp	8x	.	.	.	.	.	.	.	.	.	.	.	.	.	.	.	.	.	.	.	([4.ddn	mp	8e-X	.	8cc#X	.	.	.
.	.	.	.	.	.	.	.	.	.	.	.	.	.	.	.	.	16AAn	<	.	.	.	.	.	.	.	.	.	.	.	.	.	.	.	.	.	.	.	.	.	.	.	.	.	.	.	.	.	.	.	.	.	.
8r	.	.	.	4r	.	.	.	.	.	.	.	8r	.	.	.	.	24GGnLL	.	.	.	8.r	.	.	.	4r	.	16xLL	.	8.r	.	.	.	.	.	.	.	.	.	8.r	.	(16CCnKL	mp	.	.	.	.	8c-X	.	8an	.	.	.
.	.	.	.	.	.	.	.	.	.	.	.	.	.	.	.	.	24AA	[	.	.	.	.	.	.	.	.	.	.	.	.	.	.	.	.	.	.	.	.	.	.	.	.	.	.	.	.	.	.	.	.	.	.
.	.	.	.	.	.	.	.	.	.	.	.	.	.	.	.	.	.	.	.	.	.	.	.	.	.	.	16xJ	.	.	.	.	.	.	.	.	.	.	.	.	.	8EEn^J)	.	.	.	.	.	.	.	.	.	.	.
.	.	.	.	.	.	.	.	.	.	.	.	.	.	.	.	.	24GG	.	.	.	.	.	.	.	.	.	.	.	.	.	.	.	.	.	.	.	.	.	.	.	.	.	.	.	.	.	.	.	.	.	.	.
16r	.	.	.	.	.	.	.	.	.	.	.	16r	.	.	.	.	24AA	>	.	.	.	.	.	.	.	.	8xJ	.	.	.	.	.	.	.	.	.	.	.	.	.	.	.	.	.	.	.	8B-XJ	.	8a-XJ	.	.	.
.	.	.	.	.	.	.	.	.	.	.	.	.	.	.	.	.	24GG	.	.	.	.	.	.	.	.	.	.	.	.	.	.	.	.	.	.	.	.	.	.	.	.	.	.	.	.	.	.	.	.	.	.	.
*	*	*	*	*	*	*	*	*	*	*	*	*8va	*	*	*	*	*	*	*	*	*	*	*	*	*	*	*	*	*	*	*	*	*	*	*	*	*	*	*	*	*	*	*	*	*	*	*	*	*	*	*	*
[16AAA-X	p	.	.	.	.	.	.	.	.	.	.	16An	.	mf	.	.	.	.	.	.	16x	.	.	.	.	.	.	.	[16AAA-X^	.	.	.	.	.	.	.	.	.	16AAAn'	mp	16r	.	.	.	.	.	.	.	.	.	.	.
.	.	.	.	.	.	.	.	.	.	.	.	.	.	.	.	.	24AAJJ	.	.	.	.	.	.	.	.	.	.	.	.	.	.	.	.	.	.	.	.	.	.	.	.	.	.	.	.	.	.	.	.	.	.	.
!	!	!	!	!	!	!	!	!	!	!	!	!	!	!	!	!	!	!	!	!	!	!	!	!	!	!	!	!	!	!	!	!	!	!	!	!	!LO:TX:t=cresc.	!	!	!	!	!	!	!	!	!	!	!	!	!	!	!
16AAA-]	.	.	.	(16EnKL	mp	.	.	4r	.	.	.	16GnLL	.	.	.	.	4GG	] p	4r	.	2r	.	2x	.	16xLL	mf	4r	.	16AAA-]	.	.	.	.	.	.	.	[2f-X	.	16GGGn'LL	.	4r	.	(8B--L	p	8dd]	.	8An^L	p	8gn^L	p	4r	.
16r	.	.	.	8G#X^J)	.	.	.	.	.	.	.	16A	.	.	.	.	.	.	.	.	.	.	.	.	16xJ	.	.	.	16r	.	.	.	.	.	.	.	.	.	16AAA'	.	.	.	.	.	.	.	.	.	.	.	.	.
8r	.	.	.	.	.	.	.	.	.	.	.	16G	.	.	.	.	.	.	.	.	.	.	.	.	8xJ	.	.	.	8r	.	.	.	.	.	.	.	.	.	16GGG'	.	.	.	8d-X	.	[4.ff#X	.	8c#X	.	8bn	.	.	.
.	.	.	.	16r	.	.	.	.	.	.	.	16AJJ	.	.	.	.	.	.	.	.	.	.	.	.	.	.	.	.	.	.	.	.	.	.	.	.	.	.	16AAA'JJ	.	.	.	.	.	.	.	.	.	.	.	.	.
4r	.	.	.	4r	.	.	.	8r	.	.	.	16GLL	.	.	.	.	4AA	.	8r	.	.	.	.	.	4r	.	16xLL	p	4r	.	.	.	.	.	.	.	.	.	16GGG'LL	.	(8CCnL	mf	8e-X	.	.	.	8e-X	.	8cc#X	.	8r	.
.	.	.	.	.	.	.	.	.	.	.	.	16A	.	.	.	.	.	.	.	.	.	.	.	.	.	.	16x	.	.	.	.	.	.	.	.	.	.	.	16AAA'	.	.	.	.	.	.	.	.	.	.	.	.	.
.	.	.	.	.	.	.	.	16bbnLL	p	.	.	16G	.	.	.	.	.	.	16xLL	mp	.	.	.	.	.	.	16x	.	.	.	.	.	.	.	.	.	.	.	16GGG'	.	8EEnJ	.	8gnJ	.	.	.	8gnJ	.	8ee#XJ	.	(16bbnLL	p
.	.	.	.	.	.	.	.	16ddd#XJJ	.	.	.	16AJJ	.	.	.	.	.	.	16xJJ	.	.	.	.	.	.	.	16xJJ	.	.	.	.	.	.	.	.	.	.	.	16AAA'JJ	.	.	.	.	.	.	.	.	.	.	.	[16ddd#X^JJ	.
*	*	*	*	*	*	*	*	*	*	*	*	*	*	*	*	*	*	*	*	*	*	*	*	*	*	*	*	*	*	*	*clefC4	*	*	*	*	*	*	*	*	*	*	*	*	*	*	*	*	*	*	*	*	*
=88	=88	=88	=88	=88	=88	=88	=88	=88	=88	=88	=88	=88	=88	=88	=88	=88	=88	=88	=88	=88	=88	=88	=88	=88	=88	=88	=88	=88	=88	=88	=88	=88	=88	=88	=88	=88	=88	=88	=88	=88	=88	=88	=88	=88	=88	=88	=88	=88	=88	=88	=88	=88
!	!	!	!	!	!	!	!	!	!	!	!	!	!LO:TX:t=cresc.	!	!	!	!	!	!	!	!	!	!LO:TX:t=cresc.	!	!LO:TX:t=cresc.	!	!LO:TX:t=cresc.	!	!	!	!	!	!	!	!	!	!	!	!	!	!	!	!	!	!	!	!	!	!	!	!	!
4r	.	1r	.	(8F-XL	f	1r	.	4r	.	1r	.	4G	1r	.	2r	.	4GG	.	8x	.	4r	.	1x	.	1x	pp	1x	.	4r	.	1r	.	1r	.	2r	.	2f-]	.	4GGGn	.	8FF#XL	.	8g-XL	.	8ff#]	.	8f#XL	.	8eenL	.	16ddd#])	.
.	.	.	.	.	.	.	.	.	.	.	.	.	.	.	.	.	.	.	.	.	.	.	.	.	.	.	.	.	.	.	.	.	.	.	.	.	.	.	.	.	.	.	.	.	.	.	.	.	.	.	16r	.
!	!	!	!	!LO:TX:t=cresc.	!	!	!	!	!	!	!	!	!	!	!	!	!	!	!	!	!	!	!	!	!	!	!	!	!	!	!	!	!	!	!	!	!	!	!	!	!	!	!	!	!LO:TX:t=cresc.	!	!	!	!	!	!	!
.	.	.	.	8A-X	.	.	.	.	.	.	.	.	.	.	.	.	.	.	8r	.	.	.	.	.	.	.	.	.	.	.	.	.	.	.	.	.	.	.	.	.	8AA#X	.	8c#X	.	[4.gg#X	.	8cn	.	8b-X	.	8r	.
!	!	!	!	!	!	!	!	!	!	!	!	!	!	!	!	!	!	!	!LO:TX:t=cresc.	!	!	!	!	!	!	!	!	!	!	!	!	!	!	!	!	!	!	!	!	!	!	!	!LO:TX:t=cresc.	!	!	!	!	!	!	!	!LO:TX:t=cresc.	!
8.AAA-X	mp	.	.	8B-X	.	.	.	8ccc-XL	p	.	.	4A	.	.	.	.	4AA	.	2.xt	pp	8x	.	.	.	.	.	.	.	8.AAA-X^	.	.	.	.	.	.	.	.	.	4AAAn	.	8AAn	.	8c-X	.	.	.	8Bn	.	8an	.	(8ccc-XL	.
!	!	!	!	!	!	!	!	!LO:TX:t=cresc.	!	!	!	!	!	!	!	!	!	!	!	!	!	!	!	!	!	!	!	!	!	!	!	!	!	!	!	!	!	!	!	!	!	!	!	!	!	!	!	!	!	!	!	!
.	.	.	.	8dnJ	.	.	.	8eee-XJ	.	.	.	.	.	.	.	.	.	.	.	.	8r	.	.	.	.	.	.	.	.	.	.	.	.	.	.	.	.	.	.	.	8EE-XJ	.	8B-XJ	.	.	.	8B-XJ)	.	8a-XJ)	.	8eee-XJ	.
16r	.	.	.	.	.	.	.	.	.	.	.	.	.	.	.	.	.	.	.	.	.	.	.	.	.	.	.	.	16r	.	.	.	.	.	.	.	.	.	.	.	.	.	.	.	.	.	.	.	.	.	.	.
!	!	!	!	!	!	!	!	!	!	!	!	!	!	!	!	!	!	!	!	!	!	!	!	!	!	!	!	!	!	!	!	!	!	!	!	!	!	!	!LO:TX:t=cresc.	!	!LO:TX:t=cresc.	!	!	!	!	!	!LO:TX:t=cresc.	!	!LO:TX:t=cresc.	!	!	!
2r	.	.	.	8d-XL	.	.	.	8fffnL	.	.	.	4G	.	.	4r	.	4GG	.	.	.	2r	.	.	.	.	.	.	.	2r	.	.	.	.	.	4r	.	[2B-X	.	4GGG	.	8DDnL	.	8B--L	.	8gg#]	.	(8B--L	.	(8gnL	.	8fffnL	.
.	.	.	.	8Gn	.	.	.	8aaan	.	.	.	.	.	.	.	.	.	.	.	.	.	.	.	.	.	.	.	.	.	.	.	.	.	.	.	.	.	.	.	.	8DD-X	.	8d-X	.	[4.bb#X	.	8d-X	.	8bn	.	8aaan	.
.	.	.	.	8G-X	.	.	.	8aaa-X	.	.	.	4A	.	.	8r	.	4AA	.	.	.	.	.	.	.	.	.	.	.	.	.	.	.	.	.	8r	.	.	.	4AAA	.	8CCn	.	8e-X	.	.	.	8e-X	.	8cc#X	.	8aaa-X	.
.	.	.	.	8FnJ	.	.	.	8dddnJ	.	.	.	.	.	.	24aanLL	f	.	.	.	.	.	.	.	.	.	.	.	.	.	.	.	.	.	.	24an'LL	f	.	.	.	.	8EEnJ	.	8gnJ	.	.	.	8gnJ	.	8ee#XJ	.	8fffnJ	.
.	.	.	.	.	.	.	.	.	.	.	.	.	.	.	24aa	.	.	.	.	.	.	.	.	.	.	.	.	.	.	.	.	.	.	.	24a'	.	.	.	.	.	.	.	.	.	.	.	.	.	.	.	.	.
.	.	.	.	.	.	.	.	.	.	.	.	.	.	.	24aaJJ	.	.	.	.	.	.	.	.	.	.	.	.	.	.	.	.	.	.	.	24a'JJ	.	.	.	.	.	.	.	.	.	.	.	.	.	.	.	.	.
*	*	*	*	*	*	*	*	*	*	*	*	*	*	*	*	*	*	*	*	*	*	*	*	*	*	*	*	*	*	*	*	*	*clefC4	*	*	*	*	*	*	*	*	*	*	*	*	*	*	*	*	*	*	*
=89	=89	=89	=89	=89	=89	=89	=89	=89	=89	=89	=89	=89	=89	=89	=89	=89	=89	=89	=89	=89	=89	=89	=89	=89	=89	=89	=89	=89	=89	=89	=89	=89	=89	=89	=89	=89	=89	=89	=89	=89	=89	=89	=89	=89	=89	=89	=89	=89	=89	=89	=89	=89
8r	.	4r	.	8F-XL	.	4r	.	8ddd-XL	.	1r	.	4G	1r	.	4aan	.	4GG	.	1x	.	8r	.	1x	.	1x	.	1x	.	8r	.	4r	.	1r	.	4an	.	2B-]	.	4GGGn	.	8FF#XL	.	8g-XL	.	8bb#]	.	8f#XL	.	8eenL	.	8ddd-XL	.
!	!	!	!	!	!	!	!	!	!	!	!	!	!	!	!	!	!	!	!	!	!LO:TX:t=cresc.	!	!	!	!	!	!	!	!	!	!	!	!	!	!	!	!	!	!	!	!	!	!	!	!	!	!	!	!	!	!	!
(4AAA-X^	mf	.	.	8A-X	.	.	.	8cccn	.	.	.	.	.	.	.	.	.	.	.	.	4.x	pp	.	.	.	.	.	.	(4AAA-X^	mf	.	.	.	.	.	.	.	.	.	.	8AA#X	.	8cn	.	[4.bbn	.	8cn	.	8b-X	.	8cccn	.
*	*	*clefC4	*	*	*	*	*	*	*	*	*	*	*	*	*	*	*	*	*	*	*	*	*	*	*	*	*	*	*	*	*	*	*	*	*	*	*	*	*	*	*	*	*	*	*	*	*	*	*	*	*	*
.	.	4cn	ff	8B-X	.	4cn	ff	8ccc-X	.	.	.	4A	.	.	4r	.	4AA	.	.	.	.	.	.	.	.	.	.	.	.	.	4cn^	ff	.	.	4r	.	.	.	4AAAn	.	8AAn	.	8c-X	.	.	.	8Bn	.	8an	.	8ccc-X	.
!LO:TX:t=cresc.	!	!	!	!	!	!	!	!	!	!	!	!	!	!	!	!	!	!	!	!	!	!	!	!	!	!	!	!	!	!	!	!	!	!	!	!	!	!	!	!	!	!	!	!	!	!	!	!	!	!	!	!
4CCn	.	.	.	8dnJ	.	.	.	8eee-XJ	.	.	.	.	.	.	.	.	.	.	.	.	.	.	.	.	.	.	.	.	4CCn	.	.	.	.	.	.	.	.	.	.	.	8EE-XJ	.	8B-XJ	.	.	.	8B-XJ	.	8a-XJ	.	8eee-XJ	.
.	.	[2an	.	8d-XL	.	[2an	<	8fffnL	.	.	.	4G	.	.	4r	.	4GG	.	.	.	2x	.	.	.	.	.	.	.	.	.	[2an^	.	.	.	4r	.	[2A#X	.	4GGG	.	8DDnL	.	8B--L	.	8bb]	.	8B--L	.	8gnL	.	8fffnL	.
!	!	!	!	!	!	!	!	!	!	!	!	!	!	!	!	!	!	!	!	!	!	!	!	!	!	!	!	!	!LO:TX:t=cresc.	!	!	!	!	!	!	!	!	!	!	!	!	!	!	!	!	!	!	!	!	!	!	!
4DDn	.	.	.	8Gn	.	.	.	8aaan	.	.	.	.	.	.	.	.	.	.	.	.	.	.	.	.	.	.	.	.	4DDn	.	.	.	.	.	.	.	.	.	.	.	8DD-X	.	8d-X	.	[4.ffn	.	8d-X	.	8bn	.	8aaan	.
.	.	.	.	8G-X	.	.	.	8aaa-X	.	.	.	4A	.	.	8r	.	4AA	.	.	.	.	.	.	.	.	.	.	.	.	.	.	.	.	.	8r	.	.	.	4AAA	.	8CCn	.	8e-X	.	.	.	8e-X	.	8cc#X	.	8aaa-X	.
[8FF#X	.	.	.	8FnJ	.	.	.	8dddnJ	.	.	.	.	.	.	24ddd-XLL	mf	.	.	.	.	.	.	.	.	.	.	.	.	[8FF#X	.	.	.	.	.	24dd-X'LL	.	.	.	.	.	8EEnJ	.	8gnJ	.	.	.	8gnJ	.	8ee#XJ	.	8dddnJ	.
.	.	.	.	.	.	.	.	.	.	.	.	.	.	.	24ddd-	.	.	.	.	.	.	.	.	.	.	.	.	.	.	.	.	.	.	.	24dd-'	.	.	.	.	.	.	.	.	.	.	.	.	.	.	.	.	.
.	.	.	.	.	.	.	.	.	.	.	.	.	.	.	24ddd-JJ	.	.	.	.	.	.	.	.	.	.	.	.	.	.	.	.	.	.	.	24dd-'JJ	.	.	.	.	.	.	.	.	.	.	.	.	.	.	.	.	.
=90	=90	=90	=90	=90	=90	=90	=90	=90	=90	=90	=90	=90	=90	=90	=90	=90	=90	=90	=90	=90	=90	=90	=90	=90	=90	=90	=90	=90	=90	=90	=90	=90	=90	=90	=90	=90	=90	=90	=90	=90	=90	=90	=90	=90	=90	=90	=90	=90	=90	=90	=90	=90
*	*	*	*	*	*	*	*	*	*	*	*	*X8va	*	*	*	*	*	*	*	*	*	*	*	*	*	*	*	*	*	*	*	*	*	*	*	*	*	*	*	*	*	*	*	*	*	*	*	*	*	*	*	*
8FF#]	.	4a]	<	8F-XL	.	4a]	.	8ddd-XL	.	4r	.	4GG	1r	.	4ddd-X	.	4GG	.	1x	.	1x	.	1x	.	1x	.	1x	.	8FF#]	.	2.a_	> mf	2r	>	4dd-X~	.	2A#]	.	4GGGn	.	8FF#XL	.	8g-XL	.	8ff]	.	8f#XL	.	8eenL	.	8ddd-XL	.
4FFn	.	.	.	8A-X	.	.	.	8cccn	.	.	.	.	.	.	.	.	.	.	.	.	.	.	.	.	.	.	.	.	4FFn	.	.	.	.	.	.	.	.	.	.	.	8AA#X	.	8cn	.	[4.een	.	8cn	.	8b-X	.	8cccn	.
*	*	*clefG2	*	*	*	*	*	*	*	*	*	*	*	*	*	*	*	*	*	*	*	*	*	*	*	*	*	*	*	*	*	*	*	*	*	*	*	*	*	*	*	*	*	*	*	*	*	*	*	*	*	*
.	.	(2gg#X	[ fff	8B-X	.	(2gg#X	[ fff	8ccc-X	.	(2gg#X	fff	4AA	.	.	8r	.	4AA	.	.	.	.	.	.	.	.	.	.	.	.	.	.	.	.	.	8r	.	.	.	4AAAn	.	8AAn	.	8c-X	.	.	.	8Bn	.	8an	.	8ccc-X	.
4BBBn	.	.	.	8dnJ	.	.	.	8eee-XJ	.	.	.	.	.	.	24fffnLL	.	.	.	.	.	.	.	.	.	.	.	.	.	4BBBn	.	.	.	.	.	24ff'LL	.	.	.	.	.	8EE-XJ	.	8B-XJ	.	.	.	8B-XJ	.	8a-XJ	.	8eee-XJ	.
.	.	.	.	.	.	.	.	.	.	.	.	.	.	.	24fff	.	.	.	.	.	.	.	.	.	.	.	.	.	.	.	.	.	.	.	24ff'	.	.	.	.	.	.	.	.	.	.	.	.	.	.	.	.	.
.	.	.	.	.	.	.	.	.	.	.	.	.	.	.	24fffJJ	.	.	.	.	.	.	.	.	.	.	.	.	.	.	.	.	.	.	.	24ff'JJ	.	.	.	.	.	.	.	.	.	.	.	.	.	.	.	.	.
.	.	.	.	8d-XL	.	.	.	8fffnL	.	.	.	4GG	.	.	4fff	.	4GG	.	.	.	.	.	.	.	.	.	.	.	.	.	.	.	4r	] mf <	4ff~	.	2An)	.	4GGG	.	8DDnL	.	8B--L	.	8ee]	.	8B--L	.	8gnL	.	8fffnL	.
4BBB-X	.	.	.	8Gn	.	.	.	8aaan	.	.	.	.	.	.	.	.	.	.	.	.	.	.	.	.	.	.	.	.	4BBB-X	.	.	.	.	.	.	.	.	.	.	.	8DD-X	.	8d-X	.	4ee-X)	.	8d-X	.	8bn	.	8aaan	.
.	.	4ggn)	.	8G-X	.	4ggn)	.	8aaa-X	.	4ggn)	.	4AA	.	.	8r	.	4AA	.	.	.	.	.	.	.	.	.	.	.	.	.	8aL]	] <	8r	.	8r	.	.	.	4AAA	.	8CCn	.	8e-X	.	.	.	8e-X	.	8cc#X	.	8aaa-X	.
8AAAn)	.	.	.	8FnJ)	.	.	.	8dddnJ	.	.	.	.	.	.	24bbb-XLL	fff	.	.	.	.	.	.	.	.	.	.	.	.	8AAAn)	.	24b-X'L	[ ff	24b-X'LL	[ ff	24bb-X'LL	fff	.	.	.	.	8EEnJ)	.	8gnJ)	.	24b-X'LL 24bb-X	fff	8gnJ)	.	8ee#XJ)	.	8dddnJ)	.
.	.	.	.	.	.	.	.	.	.	.	.	.	.	.	24bbb-	.	.	.	.	.	.	.	.	.	.	.	.	.	.	.	24b-'	.	24b-'	.	24bb-'	.	.	.	.	.	.	.	.	.	24b-' 24bb-	.	.	.	.	.	.	.
.	.	.	.	.	.	.	.	.	.	.	.	.	.	.	24bbb-JJ	.	.	.	.	.	.	.	.	.	.	.	.	.	.	.	24b-'JJ	.	24b-'JJ	.	24bb-'JJ	.	.	.	.	.	.	.	.	.	24b-'JJ 24bb-	.	.	.	.	.	.	.
=	=	=	=	=	=	=	=	=	=	=	=	=	=	=	=	=	=	=	=	=	=	=	=	=	=	=	=	=	=	=	=	=	=	=	=	=	=	=	=	=	=	=	=	=	=	=	=	=	=	=	=	=
*-	*-	*-	*-	*-	*-	*-	*-	*-	*-	*-	*-	*-	*-	*-	*-	*-	*-	*-	*-	*-	*-	*-	*-	*-	*-	*-	*-	*-	*-	*-	*-	*-	*-	*-	*-	*-	*-	*-	*-	*-	*-	*-	*-	*-	*-	*-	*-	*-	*-	*-	*-	*-
!!!system-decoration: [(s1,s2,s3,s4,s5,s6,s7)][(s8,s9,s10,s11,s12,s13)][(s14,s15,s16,s17,s18)][(s19)]s20{(s21,s22)}[(s23,s24,s25,s26,s27,s28)]
!!!CDT: 1885/02/09-1935/12/24
!!!CBL: Vienna, Austria
!!!CDL: Vienna, Austria
!!!CNT: Austrian
!!!AGN: Orchestral; Symphonic
!!!MCN: Schüler, J.
!!!MDT: 1930/04/14
!!!MGN: unknown
!!!MLC: Oldenburg, Germany
!!!MPD: 1930
!!!MPN:
!!!ODT: 1915
!!!PDT: 1929
!!!excerpt-start-measure: 84
!!!excerpt-end-measure: 90
!!!excerpt-start-time: 3:43
!!!excerpt-end-time: 4:01
!!!EEV: 2020/01/22
!!!ONB: Converted from MusicXML on 2020/01/22
